public/icons/digital.svg

<svg width="20" height="21" viewBox="0 0 20 21" fill="none" xmlns="http://www.w3.org/2000/svg">
<path fill-rule="evenodd" clip-rule="evenodd" d="M17 0H3C1.34315 0 0 1.34315 0 3V13C0 14.6569 1.34315 16 3 16H8.58579L5.29289 19.2929C4.90237 19.6834 4.90237 20.3166 5.29289 20.7071C5.68342 21.0976 6.31658 21.0976 6.70711 20.7071L10 17.4142L13.2929 20.7071C13.6834 21.0976 14.3166 21.0976 14.7071 20.7071C15.0976 20.3166 15.0976 19.6834 14.7071 19.2929L11.4142 16H17C18.6569 16 20 14.6569 20 13V3C20 1.34315 18.6569 0 17 0ZM3.29289 12.3739C2.90237 11.9833 2.90237 11.3502 3.29289 10.9597L7.29289 6.95965C7.65592 6.59662 8.23489 6.56748 8.63253 6.89223L9.90638 7.93253L13.2678 4.31899C13.4565 4.11611 13.721 4.00063 13.9981 4.00009C14.2751 3.99956 14.54 4.11401 14.7295 4.31615L16.7295 6.44948C17.1073 6.8524 17.0869 7.48523 16.6839 7.86296C16.281 8.24069 15.6482 8.22028 15.2705 7.81737L14.0028 6.46524L10.7322 9.9812C10.3731 10.3673 9.77586 10.4081 9.36747 10.0746L8.06777 9.0132L4.70711 12.3739C4.31658 12.7644 3.68342 12.7644 3.29289 12.3739Z" fill="#1574E5"/>
</svg>

<svg xmlns="http://www.w3.org/2000/svg" width="20" height="21" fill="none"><path fill="#1574E5" fill-rule="evenodd" d="M17 0H3a3 3 0 0 0-3 3v10a3 3 0 0 0 3 3h5.586l-3.293 3.293a1 1 0 1 0 1.414 1.414L10 17.414l3.293 3.293a1 1 0 0 0 1.414-1.414L11.414 16H17a3 3 0 0 0 3-3V3a3 3 0 0 0-3-3M3.293 12.374a1 1 0 0 1 0-1.414l4-4a1 1 0 0 1 1.34-.068l1.273 1.04 3.362-3.613a1 1 0 0 1 1.461-.003l2 2.133a1 1 0 1 1-1.458 1.368l-1.268-1.352-3.27 3.516a1 1 0 0 1-1.366.094l-1.3-1.062-3.36 3.36a1 1 0 0 1-1.414 0" clip-rule="evenodd"/></svg>
